css/img/sixlabors.svg

<svg viewBox="0 0 1024 1024" xmlns="http://www.w3.org/2000/svg" fill-rule="evenodd" clip-rule="evenodd" stroke-linejoin="round" stroke-miterlimit="2"><path d="M101.664 126.506c11.274-19.548 22.527-39.11 33.803-58.658-5.312-9.375-10.765-18.655-16.09-28.008-22.438-.233-44.867.187-67.3-.22-5.908 9.12-10.942 18.802-16.49 28.161 5.734 9.697 11.157 19.57 16.168 27.872 10.65.109 21.81.214 32.461-.085 4.4-8.459 9.244-16.711 13.993-24.926-5.826-.03-11.679-.096-17.499-.075-1.79 3.143-3.544 6.298-5.308 9.458-4.778.112-9.888.213-14.82.247-2.394-4.108-4.724-8.265-7.177-12.34 2.318-4.41 4.735-8.759 7.458-12.927 16.588.454 33.185-.082 49.779.29 2.27 4.192 4.706 8.28 7.104 12.396-6.08 10.413-20.621 35.18-25.183 42.946-16.675.211-35.01.363-49.625.492-8.383-14.434-16.639-28.942-25.035-43.37 8.173-14.447 16.721-28.677 24.738-43.207 22.591-.368 45.21.029 67.803-.223-2.98-5.157-5.97-10.367-8.861-15.384-24.482.03-46.52.039-67.814 0C22.739 28.23 11.133 48.177 0 67.335c11.717 20.361 24.039 41.742 34.001 59.188 22.553-.137 45.106-.023 67.663-.017z" fill="url(#_Linear1)" fill-rule="nonzero" transform="translate(12 11.996) scale(7.38187)"/><defs><linearGradient id="_Linear1" x1="0" y1="0" x2="1" y2="0" gradientUnits="userSpaceOnUse" gradientTransform="rotate(-44.975 163.14 67.262) scale(190.278)"><stop offset="0" stop-color="#9f1923"/><stop offset="1" stop-color="#e30183"/></linearGradient></defs></svg>

<?xml version="1.0" encoding="UTF-8" standalone="no"?>
<!DOCTYPE svg PUBLIC "-//W3C//DTD SVG 1.1//EN" "http://www.w3.org/Graphics/SVG/1.1/DTD/svg11.dtd">
<svg width="100%" height="100%" viewBox="0 0 1024 1024" version="1.1" xmlns="http://www.w3.org/2000/svg" xmlns:xlink="http://www.w3.org/1999/xlink" xml:space="preserve" xmlns:serif="http://www.serif.com/" style="fill-rule:evenodd;clip-rule:evenodd;stroke-linejoin:round;stroke-miterlimit:2;">
    <g transform="matrix(7.38187,0,0,7.38187,12,11.9963)">
        <path d="M101.664,126.506C112.938,106.958 124.191,87.396 135.467,67.848C130.155,58.473 124.702,49.193 119.377,39.84C96.939,39.607 74.51,40.027 52.077,39.62C46.169,48.74 41.135,58.422 35.587,67.781C41.321,77.478 46.744,87.351 51.755,95.653C62.405,95.762 73.565,95.867 84.216,95.568C88.616,87.109 93.46,78.857 98.209,70.642C92.383,70.612 86.53,70.546 80.71,70.567C78.92,73.71 77.166,76.865 75.402,80.025C70.624,80.137 65.514,80.238 60.582,80.272C58.188,76.164 55.858,72.007 53.405,67.932C55.723,63.522 58.14,59.173 60.863,55.005C77.451,55.459 94.048,54.923 110.642,55.295C112.912,59.487 115.348,63.575 117.746,67.691C111.666,78.104 97.125,102.871 92.563,110.637C75.888,110.848 57.553,111 42.938,111.129C34.555,96.695 26.299,82.187 17.903,67.759C26.076,53.312 34.624,39.082 42.641,24.552C65.232,24.184 87.851,24.581 110.444,24.329C107.464,19.172 104.474,13.962 101.583,8.945C77.101,8.975 55.063,8.984 33.769,8.945C22.739,28.23 11.133,48.177 0,67.335C11.717,87.696 24.039,109.077 34.001,126.523C56.554,126.386 79.107,126.5 101.664,126.506Z" style="fill:url(#_Linear1);fill-rule:nonzero;"/>
    </g>
    <defs>
        <linearGradient id="_Linear1" x1="0" y1="0" x2="1" y2="0" gradientUnits="userSpaceOnUse" gradientTransform="matrix(134.605,-134.489,134.489,134.605,0.191608,134.988)"><stop offset="0" style="stop-color:rgb(159,25,35);stop-opacity:1"/><stop offset="1" style="stop-color:rgb(227,1,131);stop-opacity:1"/></linearGradient>
    </defs>
</svg>
